X:502
T:Taking the Tent Down
R:jig
C:Julian Sutton, England
Z:id:hn-jig-502
M:6/8
L:1/8
K:G
G2g fGd- | d2G ABd | e2d BAG | ABd B2A |
G2g fGd- | d2G ABG | BcA BGE | DEG ABG :|
AEG AdA | eAc BGE | DFG ADd- | d2D GFD |
EGA cde | age ede | deg edB | BcA BAG |
EGA dAe | deg a2g | fgf dAG | FDd- d2D |
EGA gAe | deA- A2B | cdg fgd | ecA d3 ||

